P3
# Safe synthetic placeholder; not a real-game asset.
8 8
255
220 250 225 220 250 225 40 150 70 220 250 225 220 250 225 40 150 70 220 250 225 40 150 70
220 250 225 40 150 70 220 250 225 220 250 225 40 150 70 220 250 225 220 250 225 40 150 70
40 150 70 220 250 225 220 250 225 40 150 70 220 250 225 220 250 225 40 150 70 40 150 70
220 250 225 220 250 225 40 150 70 220 250 225 220 250 225 40 150 70 220 250 225 40 150 70
220 250 225 40 150 70 220 250 225 220 250 225 40 150 70 220 250 225 220 250 225 40 150 70
40 150 70 220 250 225 220 250 225 40 150 70 220 250 225 220 250 225 40 150 70 40 150 70
220 250 225 220 250 225 40 150 70 220 250 225 220 250 225 40 150 70 220 250 225 40 150 70
220 250 225 40 150 70 220 250 225 220 250 225 40 150 70 220 250 225 220 250 225 40 150 70
