P3
# Safe synthetic placeholder; not a real-game asset.
8 8
255
190 110 30 250 235 215 250 235 215 250 235 215 190 110 30 250 235 215 250 235 215 250 235 215
190 110 30 250 235 215 250 235 215 190 110 30 250 235 215 250 235 215 250 235 215 190 110 30
190 110 30 250 235 215 190 110 30 250 235 215 250 235 215 250 235 215 190 110 30 250 235 215
190 110 30 190 110 30 250 235 215 250 235 215 250 235 215 190 110 30 250 235 215 250 235 215
190 110 30 250 235 215 250 235 215 250 235 215 190 110 30 250 235 215 250 235 215 250 235 215
190 110 30 250 235 215 250 235 215 190 110 30 250 235 215 250 235 215 250 235 215 190 110 30
190 110 30 250 235 215 190 110 30 250 235 215 250 235 215 250 235 215 190 110 30 250 235 215
190 110 30 190 110 30 250 235 215 250 235 215 250 235 215 190 110 30 250 235 215 250 235 215
