P3
# Safe synthetic placeholder; not a real-game asset.
8 8
255
220 235 250 30 80 150 30 80 150 220 235 250 220 235 250 30 80 150 220 235 250 220 235 250
220 235 250 30 80 150 220 235 250 220 235 250 30 80 150 220 235 250 220 235 250 30 80 150
30 80 150 30 80 150 220 235 250 30 80 150 220 235 250 220 235 250 30 80 150 220 235 250
220 235 250 30 80 150 30 80 150 220 235 250 220 235 250 30 80 150 220 235 250 220 235 250
220 235 250 30 80 150 220 235 250 220 235 250 30 80 150 220 235 250 220 235 250 30 80 150
30 80 150 30 80 150 220 235 250 30 80 150 220 235 250 220 235 250 30 80 150 220 235 250
220 235 250 30 80 150 30 80 150 220 235 250 220 235 250 30 80 150 220 235 250 220 235 250
220 235 250 30 80 150 220 235 250 220 235 250 30 80 150 220 235 250 220 235 250 30 80 150
