P3
# Safe synthetic placeholder; not a real-game asset.
8 8
255
220 250 250 20 100 120 220 250 250 20 100 120 220 250 250 20 100 120 220 250 250 20 100 120
20 100 120 220 250 250 20 100 120 20 100 120 20 100 120 220 250 250 20 100 120 220 250 250
220 250 250 20 100 120 220 250 250 20 100 120 220 250 250 20 100 120 220 250 250 20 100 120
20 100 120 220 250 250 20 100 120 20 100 120 20 100 120 220 250 250 20 100 120 220 250 250
220 250 250 20 100 120 220 250 250 20 100 120 220 250 250 20 100 120 220 250 250 20 100 120
20 100 120 220 250 250 20 100 120 20 100 120 20 100 120 220 250 250 20 100 120 220 250 250
220 250 250 20 100 120 220 250 250 20 100 120 220 250 250 20 100 120 220 250 250 20 100 120
20 100 120 220 250 250 20 100 120 20 100 120 20 100 120 220 250 250 20 100 120 220 250 250
