P3
# Safe synthetic placeholder; not a real-game asset.
8 8
255
225 225 225 90 90 90 225 225 225 90 90 90 225 225 225 90 90 90 225 225 225 90 90 90
90 90 90 90 90 90 90 90 90 225 225 225 90 90 90 225 225 225 90 90 90 225 225 225
225 225 225 90 90 90 225 225 225 90 90 90 225 225 225 90 90 90 225 225 225 90 90 90
90 90 90 90 90 90 90 90 90 225 225 225 90 90 90 225 225 225 90 90 90 225 225 225
225 225 225 90 90 90 225 225 225 90 90 90 225 225 225 90 90 90 225 225 225 90 90 90
90 90 90 90 90 90 90 90 90 225 225 225 90 90 90 225 225 225 90 90 90 225 225 225
225 225 225 90 90 90 225 225 225 90 90 90 225 225 225 90 90 90 225 225 225 90 90 90
90 90 90 90 90 90 90 90 90 225 225 225 90 90 90 225 225 225 90 90 90 225 225 225
