P3
# Safe synthetic placeholder; not a real-game asset.
8 8
255
230 245 220 230 245 220 80 120 60 230 245 220 230 245 220 230 245 220 80 120 60 230 245 220
230 245 220 80 120 60 80 120 60 230 245 220 230 245 220 80 120 60 230 245 220 230 245 220
80 120 60 230 245 220 80 120 60 230 245 220 80 120 60 230 245 220 230 245 220 230 245 220
230 245 220 230 245 220 80 120 60 80 120 60 230 245 220 230 245 220 230 245 220 80 120 60
230 245 220 230 245 220 80 120 60 230 245 220 230 245 220 230 245 220 80 120 60 230 245 220
230 245 220 80 120 60 80 120 60 230 245 220 230 245 220 80 120 60 230 245 220 230 245 220
80 120 60 230 245 220 80 120 60 230 245 220 80 120 60 230 245 220 230 245 220 230 245 220
230 245 220 230 245 220 80 120 60 80 120 60 230 245 220 230 245 220 230 245 220 80 120 60
