P3
# Safe synthetic placeholder; not a real-game asset.
8 8
255
255 245 190 255 245 190 200 170 40 255 245 190 200 170 40 200 170 40 255 245 190 255 245 190
255 245 190 200 170 40 255 245 190 255 245 190 200 170 40 255 245 190 255 245 190 200 170 40
200 170 40 255 245 190 255 245 190 200 170 40 200 170 40 255 245 190 200 170 40 255 245 190
255 245 190 255 245 190 200 170 40 255 245 190 200 170 40 200 170 40 255 245 190 255 245 190
255 245 190 200 170 40 255 245 190 255 245 190 200 170 40 255 245 190 255 245 190 200 170 40
200 170 40 255 245 190 255 245 190 200 170 40 200 170 40 255 245 190 200 170 40 255 245 190
255 245 190 255 245 190 200 170 40 255 245 190 200 170 40 200 170 40 255 245 190 255 245 190
255 245 190 200 170 40 255 245 190 255 245 190 200 170 40 255 245 190 255 245 190 200 170 40
